modules/themify-icons/icons/video-clapper.svg

<?xml version="1.0" encoding="utf-8"?>
<!-- Generated by IcoMoon.io -->
<!DOCTYPE svg PUBLIC "-//W3C//DTD SVG 1.1//EN" "http://www.w3.org/Graphics/SVG/1.1/DTD/svg11.dtd">
<svg version="1.1" xmlns="http://www.w3.org/2000/svg" xmlns:xlink="http://www.w3.org/1999/xlink" width="17" height="17" viewBox="0 0 17 17">
<g>
</g>
	<path d="M0 1v15h17v-15h-17zM16 4h-0.268l-2.356-2h2.624v2zM8.743 7l2.357-2h2.919l-2.357 2h-2.919zM6.803 4l-2.357-2h2.918l2.357 2h-2.918zM9.554 5l-2.357 2h-2.919l2.356-2h2.92zM11.268 4l-2.357-2h2.918l2.357 2h-2.918zM1 2h1.9l2.357 2h-4.257v-2zM1 5h4.089l-2.357 2h-1.732v-2zM16 15h-15v-7h15v7zM16 7h-2.792l2.356-2h0.436v2z" fill="#000000" />
</svg>

<svg xmlns="http://www.w3.org/2000/svg" width="17" height="17"><path d="M0 1v15h17V1H0zm16 3h-.268l-2.356-2H16v2zM8.743 7L11.1 5h2.919l-2.357 2H8.743zm-1.94-3L4.446 2h2.918l2.357 2H6.803zm2.751 1L7.197 7H4.278l2.356-2h2.92zm1.714-1L8.911 2h2.918l2.357 2h-2.918zM1 2h1.9l2.357 2H1V2zm0 3h4.089L2.732 7H1V5zm15 10H1V8h15v7zm0-8h-2.792l2.356-2H16v2z"/></svg>
